src/images/mobile-icons/share-on-ios.svg

<svg viewBox="0 0 512 512" xmlns="http://www.w3.org/2000/svg" xmlns:xlink="http://www.w3.org/1999/xlink">
  <title>share-on-ios</title>
  <path d="M170.666333,149.333333 L170.666333,191.999333 L128,192 L128,426.666667 L384,426.666667 L384,192 L341.333333,191.999333 L341.333333,149.333333 L405.333333,149.333333 C417.115408,149.333333 426.666667,158.884592 426.666667,170.666667 L426.666667,448 C426.666667,459.782075 417.115408,469.333333 405.333333,469.333333 L106.666667,469.333333 C94.884592,469.333333 85.3333333,459.782075 85.3333333,448 L85.3333333,170.666667 C85.3333333,158.884592 94.884592,149.333333 106.666667,149.333333 L170.666333,149.333333 Z M256.182648,42.6666667 C261.838609,42.6666667 267.262291,44.916566 271.260373,48.9172203 L271.260373,48.9172203 L316.510507,94.1671403 C321.899253,99.5559249 324.003778,107.410229 322.031327,114.771413 C320.058876,122.132596 314.309111,127.88232 306.947913,129.854719 C299.586716,131.827118 291.732426,129.722538 286.34368,124.333754 L286.34368,124.333754 L277.5104,115.500474 L277.354128,275.819904 C277.321846,287.593833 267.773955,297.132423 256,297.153227 C255.993068,297.174012 255.986137,297.174009 255.979205,297.174002 C244.197136,297.162517 234.655192,287.601953 234.687462,275.819904 L234.687462,275.819904 L234.843733,115.50154 L226.010453,124.33482 C217.679879,132.665101 204.173587,132.664862 195.843307,124.334287 C187.513026,116.003712 187.513265,102.497421 195.84384,94.1671403 L195.84384,94.1671403 L241.101653,48.909327 C245.101829,44.910766 250.526687,42.6666667 256.182648,42.6666667 Z" fill="#000" fill-rule="nonzero" stroke="none" stroke-width="1"></path>
</svg>

<svg viewBox="0 0 512 512" xmlns="http://www.w3.org/2000/svg" xmlns:xlink="http://www.w3.org/1999/xlink">
  <title>share-on-ios</title>
  <path d="M170.666 149.333V192L128 192v234.667h256V192h-42.667v-42.667h64c11.782 0 21.334 9.552 21.334 21.334V448c0 11.782-9.552 21.333-21.334 21.333H106.667c-11.782 0-21.334-9.55-21.334-21.333V170.667c0-11.782 9.552-21.334 21.334-21.334h64zm85.517-106.666c5.656 0 11.08 2.25 15.077 6.25l45.25 45.25a21.331 21.331 0 01-30.166 30.167l-8.834-8.834-.156 160.32c-.032 11.774-9.58 21.312-21.354 21.333-.007.021-.014.021-.02.021-11.783-.011-21.325-9.572-21.293-21.354l.157-160.318-8.834 8.833c-8.33 8.33-21.836 8.33-30.167 0-8.33-8.331-8.33-21.838 0-30.168l45.259-45.258a21.33 21.33 0 0115.08-6.242z" fill="#000" fill-rule="nonzero" stroke="none" stroke-width="1"></path>
</svg>
